assets/Avatars/Female2.svg

<svg xmlns="http://www.w3.org/2000/svg" viewBox="0 0 153.41 153.41" xmlns:v="https://vecta.io/nano"><style><![CDATA[.B{isolation:isolate}.K{mix-blend-mode:multiply}.M{fill:#f1b69a}.N{stroke-linecap:round}.O{stroke-miterlimit:10}.P{fill:#d88d48}.Q{stroke:#e07e61}]]></style><defs><clipPath id="A"><circle cx="76.71" cy="76.71" r="76.71" transform="matrix(.707107 -.707107 .707107 .707107 -31.77 76.71)" fill="none"/></clipPath></defs><g class="B"><circle cx="76.71" cy="76.71" r="76.71" transform="matrix(.707107 -.707107 .707107 .707107 -31.77 76.71)" fill="#f4ddd4"/><g clip-path="url(#A)"><path d="M110.19 101.73c-9.68 5.83-24.27 13.51-33.81 13.38h0l.22 1.78c-9.86.13-26.36-8.8-36.93-15.22a7.69 7.69 0 0 1-1.87-11.59c2.05-2.52 3.14-6 1-10.81-5.36-11.71-6.69-28.82 1-46.14 7-15.93 25.47-22.05 35.2-14.81 9.7-7.23 28.15-1.11 35.21 14.82 7.68 17.32 6.34 34.43 1 46.14-2.18 4.76-1.09 8.29 1 10.81a7.72 7.72 0 0 1-2.02 11.64z" class="P"/><path d="M136.45 153.41H17s5.58-21.51 13.5-34.25 37-17.08 37-17.08l9.22 1.54 9.21-1.54s29.11 4.33 37 17.08 13.52 34.25 13.52 34.25z" fill="#9fc9c1"/><path d="M67.49 102.08c-12.1 2.71-17.68 11.52-6.79 13.84 0 0-4.16 7.68 6 11s12.86-5.23 12.86-5.23 6 8.84 13.14 5.23 7.83-10.38 1.11-13.48c0 0 3.94 2.46 5.8-1.25s-5.44-9.37-16.51-10.13-15.61.02-15.61.02z" fill="#fff"/><path d="M76.48 113.46h0a9.05 9.05 0 0 1-9-9V87.11h18.06v17.3a9.06 9.06 0 0 1-9.06 9.05z" class="M"/><path d="M85.54,85.11V95.73s-3,5.28-9.06,5.28c-4.83,0-9-4.58-9-4.58V85.11Z" fill="#150a08"/><path d="M51.16 66.52c-4.9-7.43-10.58-2.65-10.58 2.58 0 7.58 8.23 14.11 12.93 8.67s-2.35-11.25-2.35-11.25z" class="M"/><path d="M50.09,70c-3.05-5.69-7.26-.38-5.65,1.73" fill="none" class="N O Q"/><path d="M100.06 66.52c4.89-7.43 10.57-2.65 10.57 2.58 0 7.58-8.22 14.11-12.92 8.67s2.35-11.25 2.35-11.25z" class="M"/><path d="M101.13,70c3-5.69,7.25-.38,5.65,1.73" fill="none" class="N O Q"/><g class="M"><path d="M75.58 95.73c-19.34 0-30.78-21.15-26.26-42.85 3.73-17.88 48.84-17.88 52.57 0 4.52 21.7-6.95 42.86-26.31 42.85z"/><path class="K" d="M73,74c2,1,6.48-1.15,6.57,0s-2.38,2.18-3.28,2.18S73,74,73,74Z" opacity=".5"/></g><path d="M73.08,68.17c-2.82,6.1,1.4,7.29,2.53,7.43" fill="none" class="N O Q"/><g class="P"><path d="M68 51.54c-1.21-2.7-8.29-1.46-9.3.46s2.32 2.46 4.78 2.34 5.25-1.08 4.52-2.8zm15.26 0c1.2-2.7 8.29-1.46 9.29.46s-2.31 2.46-4.77 2.34-5.29-1.08-4.52-2.8z"/></g><g fill="#150a08"><path d="M62.84 61.94a1.95 1.95 0 1 0 2-1.94 1.95 1.95 0 0 0-2 1.94zm25.53 0A1.95 1.95 0 1 1 86.43 60a1.94 1.94 0 0 1 1.94 1.94z"/></g><path d="M68.82,79.42c7.46,1.43,13.38.24,15.78-1.68" fill="none" stroke="#150a08" class="N O"/><g class="M"><path class="K" d="M73.83 83.1c2.71 0 6.59-1.4 7.19 0s-2.71 4.2-4.76 4-5.53-4.01-2.43-4z" opacity=".5"/><path d="M77.87,45.47c2.56-6.41,1.62-14.26-2.26-14.43s-8.88,5.72-8.88,5.72l2.09,8.71Z"/></g><g class="P"><path d="M74.24 30.87C72.33 46.08 98.48 53 104.09 52.08s4.13-18.88-10-22.12-19.09-4.91-19.85.91z"/><path d="M75.61 31c1.9 15.21-24.2 22-29.8 21s-4.13-18.8 9.99-22 19.08-4.78 19.81 1z"/></g></g></g></svg>

<svg xmlns="http://www.w3.org/2000/svg" xmlns:xlink="http://www.w3.org/1999/xlink" viewBox="0 0 153.41 153.41"><defs><style>.cls-1,.cls-10,.cls-12{fill:none;}.cls-2{isolation:isolate;}.cls-3{fill:#f4ddd4;}.cls-4{clip-path:url(#clip-path);}.cls-5{fill:#d88d48;}.cls-6{fill:#9fc9c1;}.cls-7{fill:#fff;}.cls-11,.cls-8{fill:#f1b69a;}.cls-9{fill:#150a08;}.cls-10{stroke:#e07e61;}.cls-10,.cls-12{stroke-linecap:round;stroke-miterlimit:10;}.cls-11{mix-blend-mode:multiply;opacity:0.5;}.cls-12{stroke:#150a08;}</style><clipPath id="clip-path"><circle class="cls-1" cx="76.71" cy="76.71" r="76.71" transform="translate(-31.77 76.71) rotate(-45)"/></clipPath></defs><g class="cls-2"><g id="Layer_2" data-name="Layer 2"><g id="OBJECTS"><circle class="cls-3" cx="76.71" cy="76.71" r="76.71" transform="translate(-31.77 76.71) rotate(-45)"/><g class="cls-4"><path class="cls-5" d="M110.19,101.73c-9.68,5.83-24.27,13.51-33.81,13.38h0l.22,1.78c-9.86.13-26.36-8.8-36.93-15.22a7.69,7.69,0,0,1-1.87-11.59c2.05-2.52,3.14-6,1-10.81-5.36-11.71-6.69-28.82,1-46.14C46.8,17.2,65.27,11.08,75,18.32c9.7-7.23,28.15-1.11,35.21,14.82,7.68,17.32,6.34,34.43,1,46.14-2.18,4.76-1.09,8.29,1,10.81A7.72,7.72,0,0,1,110.19,101.73Z"/><path class="cls-6" d="M136.45,153.41H17s5.58-21.51,13.5-34.25,37-17.08,37-17.08l9.22,1.54,9.21-1.54s29.11,4.33,37,17.08S136.45,153.41,136.45,153.41Z"/><path class="cls-7" d="M67.49,102.08c-12.1,2.71-17.68,11.52-6.79,13.84,0,0-4.16,7.68,6,11s12.86-5.23,12.86-5.23,6,8.84,13.14,5.23,7.83-10.38,1.11-13.48c0,0,3.94,2.46,5.8-1.25s-5.44-9.37-16.51-10.13S67.49,102.08,67.49,102.08Z"/><path class="cls-8" d="M76.48,113.46h0a9.05,9.05,0,0,1-9-9V87.11H85.54v17.3A9.06,9.06,0,0,1,76.48,113.46Z"/><path class="cls-9" d="M85.54,85.11V95.73s-3,5.28-9.06,5.28c-4.83,0-9-4.58-9-4.58V85.11Z"/><path class="cls-8" d="M51.16,66.52c-4.9-7.43-10.58-2.65-10.58,2.58,0,7.58,8.23,14.11,12.93,8.67S51.16,66.52,51.16,66.52Z"/><path class="cls-10" d="M50.09,70c-3.05-5.69-7.26-.38-5.65,1.73"/><path class="cls-8" d="M100.06,66.52c4.89-7.43,10.57-2.65,10.57,2.58,0,7.58-8.22,14.11-12.92,8.67S100.06,66.52,100.06,66.52Z"/><path class="cls-10" d="M101.13,70c3-5.69,7.25-.38,5.65,1.73"/><path class="cls-8" d="M75.58,95.73c-19.34,0-30.78-21.15-26.26-42.85C53.05,35,98.16,35,101.89,52.88,106.41,74.58,94.94,95.74,75.58,95.73Z"/><path class="cls-11" d="M73,74c2,1,6.48-1.15,6.57,0s-2.38,2.18-3.28,2.18S73,74,73,74Z"/><path class="cls-10" d="M73.08,68.17c-2.82,6.1,1.4,7.29,2.53,7.43"/><path class="cls-5" d="M68,51.54c-1.21-2.7-8.29-1.46-9.3.46s2.32,2.46,4.78,2.34S68.73,53.26,68,51.54Z"/><path class="cls-5" d="M83.26,51.54c1.2-2.7,8.29-1.46,9.29.46s-2.31,2.46-4.77,2.34S82.49,53.26,83.26,51.54Z"/><path class="cls-9" d="M62.84,61.94a1.95,1.95,0,1,0,2-1.94A1.95,1.95,0,0,0,62.84,61.94Z"/><path class="cls-9" d="M88.37,61.94A1.95,1.95,0,1,1,86.43,60,1.94,1.94,0,0,1,88.37,61.94Z"/><path class="cls-12" d="M68.82,79.42c7.46,1.43,13.38.24,15.78-1.68"/><path class="cls-11" d="M73.83,83.1c2.71,0,6.59-1.4,7.19,0s-2.71,4.2-4.76,4S70.73,83.09,73.83,83.1Z"/><path class="cls-8" d="M77.87,45.47c2.56-6.41,1.62-14.26-2.26-14.43s-8.88,5.72-8.88,5.72l2.09,8.71Z"/><path class="cls-5" d="M74.24,30.87C72.33,46.08,98.48,53,104.09,52.08s4.13-18.88-10-22.12S75,25.05,74.24,30.87Z"/><path class="cls-5" d="M75.61,31c1.9,15.21-24.2,22-29.8,21S41.68,33.2,55.8,30,74.88,25.22,75.61,31Z"/></g></g></g></g></svg>
